X: 6
T: Time Will End
M: 2/4
L: 1/8
C: Jeremiah McLane
Z: Arr by Glenn Lee
F: http://northernroots.org/tunes/NorthernRoots.abc
Q: 1/4=110
K: G
P: A
|:\
"G"G2 gf | "Em"e3 d | "C"ed Bd | "D"A2 GA | "G"B2 AG | "C"EG DE | GA cB |
"D"A2 GF | "Em"G2 gf | "C"e3 d | ed Bd | "D"A2 GA | "G"B2 AG |
[1 "C"EG DE | "D"GA BA | "G"G2 (3DEF :|[2 "D"FG FE | "C"DC B,C | "D"DE FG |]
P: B
|:\
"Em"E3 D | "C"E3 D | "D"EF GA | "G"BA GF | "Em"E3 D | "C"EF GA | "D"A4- | AB AG |
[1 "C"E3 D | "Em"E3 D | "D"EF GA | "G"BG gf | "C"(3efg dB | "D"AG BA | "G"G3 A | BA GF :|
[2 "Em"E2 DE | "G"GA BG | "C"ed cB | "D"AG FD | "C"EF GA | "D"BA GF | "G"G4 |]
